svg/file/documents_line.svg

<?xml version="1.0" encoding="UTF-8"?>
<svg width="24px" height="24px" viewBox="0 0 24 24" version="1.1" xmlns="http://www.w3.org/2000/svg" xmlns:xlink="http://www.w3.org/1999/xlink">
    <title>documents_line</title>
    <g id="Icon" stroke="none" stroke-width="1" fill="none" fill-rule="evenodd">
        <g id="File" transform="translate(-432.000000, -192.000000)">
            <g id="documents_line" transform="translate(432.000000, 192.000000)">
                <path d="M24,0 L24,24 L0,24 L0,0 L24,0 Z M12.5935,23.2578 L12.5819,23.2595 L12.5109,23.295 L12.4919,23.2987 L12.4767,23.295 L12.4057,23.2595 C12.3958,23.2564 12.387,23.259 12.3821,23.2649 L12.378,23.2758 L12.3609,23.7031 L12.3659,23.7235 L12.3769,23.7357 L12.4805,23.8097 L12.4953,23.8136 L12.5071,23.8097 L12.6107,23.7357 L12.6233,23.7197 L12.6267,23.7031 L12.6096,23.2758 C12.6076,23.2657 12.601,23.2593 12.5935,23.2578 Z M12.8584,23.1453 L12.8445,23.1473 L12.6598,23.2397 L12.6499,23.2499 L12.6472,23.2611 L12.6651,23.6906 L12.6699,23.7034 L12.6784,23.7105 L12.8793,23.8032 C12.8914,23.8069 12.9022,23.803 12.9078,23.7952 L12.9118,23.7812 L12.8777,23.1665 C12.8753,23.1546 12.8674,23.147 12.8584,23.1453 Z M12.143,23.1473 C12.1332,23.1424 12.1222,23.1453 12.1156,23.1526 L12.1099,23.1665 L12.0758,23.7812 C12.0751,23.7927 12.0828,23.8019 12.0926,23.8046 L12.1083,23.8032 L12.3092,23.7105 L12.3186,23.7024 L12.3225,23.6906 L12.3404,23.2611 L12.3372,23.2485 L12.3278,23.2397 L12.143,23.1473 Z" id="MingCute" fill-rule="nonzero"></path>
                <path d="M15.5858,2 C16.1162,2 16.6249,2.21071 17,2.58579 L20.4142,6 C20.7893,6.37507 21,6.88378 21,7.41421 L21,16 C21,17.1046 20.1046,18 19,18 L17,18 L17,20 C17,21.1046 16.1046,22 15,22 L6,22 C4.89543,22 4,21.1046 4,20 L4,8 C4,6.89543 4.89543,6 6,6 L8,6 L8,4 C8,2.89543 8.89543,2 10,2 L15.5858,2 Z M8,8 L6,8 L6,20 L15,20 L15,18 L10,18 C8.89543,18 8,17.1046 8,16 L8,8 Z M14,4 L10,4 L10,16 L19,16 L19,9 L15.5,9 C14.7203294,9 14.0795543,8.40511446 14.0068668,7.64446046 L14,7.5 L14,4 Z M16,4.41421 L16,7 L18.5858,7 L16,4.41421 Z" id="形状" fill="#09244B"></path>
            </g>
        </g>
    </g>
</svg>

<svg xmlns="http://www.w3.org/2000/svg" width="24" height="24"><g fill="none" fill-rule="evenodd"><path d="M24 0v24H0V0h24ZM12.594 23.258l-.012.002-.071.035-.02.004-.014-.004-.071-.036c-.01-.003-.019 0-.024.006l-.004.01-.017.428.005.02.01.013.104.074.015.004.012-.004.104-.074.012-.016.004-.017-.017-.427c-.002-.01-.009-.017-.016-.018Zm.264-.113-.014.002-.184.093-.01.01-.003.011.018.43.005.012.008.008.201.092c.012.004.023 0 .029-.008l.004-.014-.034-.614c-.003-.012-.01-.02-.02-.022Zm-.715.002a.023.023 0 0 0-.027.006l-.006.014-.034.614c0 .012.007.02.017.024l.015-.002.201-.093.01-.008.003-.011.018-.43-.003-.012-.01-.01-.184-.092Z"/><path fill="#09244B" d="M15.586 2A2 2 0 0 1 17 2.586L20.414 6A2 2 0 0 1 21 7.414V16a2 2 0 0 1-2 2h-2v2a2 2 0 0 1-2 2H6a2 2 0 0 1-2-2V8a2 2 0 0 1 2-2h2V4a2 2 0 0 1 2-2h5.586ZM8 8H6v12h9v-2h-5a2 2 0 0 1-2-2V8Zm6-4h-4v12h9V9h-3.5a1.5 1.5 0 0 1-1.493-1.356L14 7.5V4Zm2 .414V7h2.586L16 4.414Z"/></g></svg>
